X:1
T:Title
%%score [ ( 1 2 ) ( 3 4 ) ]
L:1/8
Q:1/4=120
M:4/4
K:D
V:1 treble nm="Midi_74"
V:2 treble 
V:3 treble nm="Midi_74"
V:4 treble 
V:1
 B8 | F4 E4 | D8 || F8 | F4 F4 | B4 B4 | ^A8 || B8 | d4 c4 | B8 || G8 | %11
"^Robert Brisco Earée\n(1846-1928)" E4 G4 | F4 F4 | F8 |] %14
V:2
 D8 | D4 C4 | B,8 || D8 | E4 D4 | D4 E4 | F8 || F8 | F4 E4 | D8 || E8 | E4 E4 | D4 C4 | D8 |] %14
V:3
 F,8 | F,4 G,4 | F,8 || B,8 | C4 B,4 | B,4 B,4 | C8 || D8 | B,4 ^A,4 | B,8 || B,8 | B,4 B,4 | %12
 B,4 ^A,4 | B,8 |] %14
V:4
 B,,8 | B,,4 B,,4 | B,,8 || B,8 | ^A,4 B,4 | G,4 G,4 | F,8 || B,,8 | B,4 F,4 | G,8 || E,8 | %11
 G,4 E,4 | F,4 F,4 | B,,8 |] %14

